X:1
T:Cumberland, LM
T:Cumberland, LM
T:Henry Carey (1687-1743), arr. Vincent Novello
T:Public Domain Courtesy of the Cyber Hymnal™
C:Henry Carey (1687-1743), arr. Vincent Novello
Z:Public Domain
Z:Courtesy of the Cyber Hymnal™
%%score 1 2 3 ( 4 5 )
L:1/8
Q:1/4=110
M:3/4
K:G
V:1 treble 
V:2 treble 
V:3 treble 
V:4 bass 
V:5 bass 
V:1
 B2 | (e2 d2) c2 | (B2 A2) G2 | (e2 d2) d2 | d4 d2 | d4 e2 | (A3 e) d2 | (B2 A2) G2 | F4 d2 | %9
 c4 d2 | d4 d2 | c4 d2 | d4 d2 | d4 d2 | (d2 c2) B2 | (c2 B2) A2 | G4 x2 |] x4 |] %18
V:2
 G2 | G4 G2 | D4 DG | (A2 G2) F2 | G4 G2 | A4 G2 | (F2 G2) (AF) | (E2 D2) ^C2 | D4 G2 | G4 (GF) | %10
 G4 (FG) | (E2 F2) (GA) | G4 G2 | (F3 G) A2 | (G2 F2) E2 | (E2 D2) C2 | B,4 x2 |] x4 |] %18
V:3
 d2 | (c2 B2) e2 | (G2 F2) G2 | (c2 B2) A2 | B4 B2 | A4 ^c2 | d4 A2 | (G2 F2) E2 | D4 d2 | %9
 e4 (dc) | d4 (cB) | c4 (BA) | B4 B2 | (A3 B) c2 | (B2 A2) G2 | (A2 G2) F2 | G4 x2 |] x4 |] %18
V:4
 G,2 | G,4 C,2 | (D,2 C,2) B,,2 | (A,,2 D,2) D,2 | G,,4 G,2 | F,4 E,2 | (D,2 E,2) F,2 | %7
 (G,2 A,2) A,,2 | D,4 B,2 | C4 x2 | x6 | B,4 x2 | A,4 x2 | G,4 G,2 | B,,4 F,2 | (G,2 D,2) E,2 | %16
 (C,2 D,2) D,2 |] G,,4 |] %18
V:5
 x2 | x6 | x6 | x6 | x6 | x6 | x6 | x6 | x6 | (C2 C2) (B,A,) | x6 | (B,2 B,2) (A,G,) | %12
 (A,2 A,2) (G,F,) | x6 | x6 | x6 | x6 |] x4 |] %18

